X:265
T:Polska fr{\aa}n V{\aa}nga
R:sl\"angpolska
H:Efter Nils Olsson, som hade den efter Johan Arvid Hultgren (1825-1908)
H:som hade den efter Ristman.
O:\"Osterg\"otland
Z:id:hn-sp-265
M:3/4
L:1/16
K:D
dAdf eceg f2a2 | a2g2 eceg fdAF | D2f2 eceg fdfa | agec e2d2 d4 :|
|: f2a2 fdfd Adfd | A2g2 ecec Acec | A2a2 fdfd Adfd | A2g2 ecec Acec |
dAdf eceg f2a2 | agec e2d2 d4 :|

